X: 26580
T: Mick Flaherty's
R: jig
M: 6/8
K: Gmajor
g2 g ABA|GED G2 A|B2 e edB|dBA ABd|
g2 g ABA|GED G2 A|B2 e edB|BGG G3:|
d3 gfe|dBA GBd|eaa aga|bge e2 f|
gag GAG|GED G2 A|B2 e edB|BGG G3:|

